client/src/assets/plus-circle-solid.svg

<?xml version="1.0" encoding="UTF-8"?>
<!DOCTYPE svg  PUBLIC '-//W3C//DTD SVG 20010904//EN'  'http://www.w3.org/TR/2001/REC-SVG-20010904/DTD/svg10.dtd'>
<svg width="122.88pt" height="122.88pt" viewBox="0 0 122.88 122.88" xmlns="http://www.w3.org/2000/svg">
<path transform="matrix(.24 0 0 .24 1.92 1.92)" d="m248 0c-137 0-248 111-248 248s111 248 248 248 248-111 248-248-111-248-248-248zm144 276c0 6.6-5.4 12-12 12h-92v92c0 6.6-5.4 12-12 12h-56c-6.6 0-12-5.4-12-12v-92h-92c-6.6 0-12-5.4-12-12v-56c0-6.6 5.4-12 12-12h92v-92c0-6.6 5.4-12 12-12h56c6.6 0 12 5.4 12 12v92h92c6.6 0 12 5.4 12 12z" fill="#b9bbbe" stroke="#000" stroke-linecap="square" stroke-linejoin="bevel" stroke-opacity="0" stroke-width="0"/>
</svg>

<?xml version="1.0" standalone="no"?>
<!DOCTYPE svg PUBLIC "-//W3C//DTD SVG 20010904//EN" "http://www.w3.org/TR/2001/REC-SVG-20010904/DTD/svg10.dtd">
<!-- Created using Krita: https://krita.org -->
<svg xmlns="http://www.w3.org/2000/svg" 
    xmlns:xlink="http://www.w3.org/1999/xlink"
    xmlns:krita="http://krita.org/namespaces/svg/krita"
    xmlns:sodipodi="http://sodipodi.sourceforge.net/DTD/sodipodi-0.dtd"
    width="122.88pt"
    height="122.88pt"
    viewBox="0 0 122.88 122.88">
<defs/>
<path id="shape0" transform="matrix(0.24 0 0 0.24 1.92 1.92)" fill="#b9bbbe" stroke-opacity="0" stroke="#000000" stroke-width="0" stroke-linecap="square" stroke-linejoin="bevel" d="M248 0C111 0 0 111 0 248C0 385 111 496 248 496C385 496 496 385 496 248C496 111 385 0 248 0ZM392 276C392 282.6 386.6 288 380 288L288 288L288 380C288 386.6 282.6 392 276 392L220 392C213.4 392 208 386.6 208 380L208 288L116 288C109.4 288 104 282.6 104 276L104 220C104 213.4 109.4 208 116 208L208 208L208 116C208 109.4 213.4 104 220 104L276 104C282.6 104 288 109.4 288 116L288 208L380 208C386.6 208 392 213.4 392 220Z" sodipodi:nodetypes="cccccccccccccccccccccccccc"/>
</svg>
